X:1
T:Leave Well Alone
R:slide
M:12/8
L:1/8
K:D
|:f2A f2A fe2- e3|dBc d2e dcB ABd|
|f2A f2A fe2- e2d|1 dcB ABd e3 d2e:|2 dcB ABd e3 d2B|]
|:ABd def a2f e2d|B2e efe d2B BAB|
|ABd def a2f e2d|1 B2e efe d3 d2B:|2 B2e efe d3 d2e|]